X:1
T:Title
%%score { ( 1 4 ) | ( 2 3 ) }
L:1/8
Q:1/4=120
M:6/4
K:G
V:1 treble nm="Grand Piano"
V:4 treble 
V:2 bass 
V:3 bass 
V:1
 D4 G2 c4 B2 | A2 E2 F2 [B,E]4 [B,D]2 | [DG]4 A2 B4 G2 | c4 B2 [FA]6 | D4 G2 c4 B2 | %5
w: Ira~D.~Sankey * * *|||||
 A2 E2 F2 [B,E]4 [B,D]2 | z6 .d6 | [DGB]4 [CFA]2 [B,G]6 | [FA]4 [GB]2 [Ac]4 [FA]2 | B4 c2 d6 | %10
w: |||||
 [Ge]4 [Ge]2 [Gd]4 [DGB]2 | [DGB]4 [CFA]2 [B,G]6 |] %12
w: ||
V:2
 [G,B,]4 [G,B,D]2 [G,E]4 [G,D]2 | .F,4 [D,A,]2 z6 | [B,,G,]4 [D,F,D]2[K:treble] [G,D]4 [B,D]2 | %3
 [A,DF]4 [G,DG]2[K:bass] [D,D]6 | [G,B,]4[K:treble] [G,B,D]2 [G,EG]4 [G,DG]2 | .F,6 z6 | z6 .G,6 | %7
 D,4 D,2 G,6 | [D,D]4 [D,D]2 [D,D]4 [D,D]2 | [G,DG]4 [G,A,G]2 [G,B,G]6 | %10
 [C,C]4 [E,C]2 [G,B,]4 G,2 | D,4 D,2 G,,6 |] %12
V:3
 x12 | [D,C]2- [D,A,C]2 C2- [G,,-G,-C]>[G,,G,]- [G,,G,]2 [G,,G,]2 | x6[K:treble] x6 | %3
 x6[K:bass] x6 | x4[K:treble] x8 | [D,C]2- [D,A,C]2 [D,A,C]2 [G,,G,]4 [G,,G,]2 | %6
 [G,,G,]4 [B,,G,]2 C,2- [C,C]2 A,,2 | x12 | x12 | x12 | x12 | x12 |] %12
V:4
 x12 | x12 | x12 | x12 | x12 | x12 | [B,G]2 [DB]2 [=Fd]2 E2- [EG]2 [EGc]2 | x12 | x12 | x12 | x12 | %11
 x12 |] %12

